X: 749
T: Ferahfezâ Sazsemâîsi
C: Tanburî Cemil Bey
O: Turkey
F: http://compmusic.upf.edu/node/140
N: ferahfeza--sazsemaisi--aksaksemai----tanburi_cemil_bey
N: makam= ferahfeza
N: form= sazsemaisi
N: usul= aksaksemai = 10/8
M: 10/8
L: 1/16
K: C _B   
Q: 1/4=144
%%MIDI tuningsystem comma53
f4 c2de d2ef egf6  | f4 a2g4f4e4fe  | \
w:  1. HANE  |   | 
d4 e2d2 e2d2 c2d2 e2f2  | 
w:   | 
agfe d2c2 _2/4B2e2 dc{d}c6  | f4 edd4de dce4dc  | 
w:   |   | 
c4 _2/4B2c2 B2c2 d2fe dcBc  | A4 d2c3_ed2 c2B2 A2G2  | 
w:   |   | 
B4 B2BA G2A2 {c}BAA6  | B4 B2BA G2A2 B2c2 d2dc  | \
w:   |  TESLİM  | 
dcBA GAB3/2A/ BcA3/2G/ ABG3BAG  | 
w:   | 
F4 EFG3BA2 G2F2 E2D2  | E2F2 G2FE D2FE D^CDE FGAc  | 
w:   |   | 
B4 B2BA G2A2 B2c2 d2dc  | dcBA GAB3/2A/ BcA3/2G/ ABG3BAG  | 
w:  TESLİM  |   | 
F4 EFG3BA2 G2F2 E2D2  | E2F2 G2FE D2FE D^CD6  | 
w:   |   | 
d4 egf3/2e/ ded3/2^c/ Bcd4z2  | d4 a2a3/2b/ agg2 abag fed^c  | 
w:  2. HANE  |   | 
d4 egf3/2e/ ded3/2^c/ Bcd4z2  | d4 a2a3gg2 fef6  | 
w:   |   | 
c2f2 fef4f2 e2a2 g2f2  | e3/2f/ef edf3/2e/ dedc _2/4Bdcd c2B2  | 
w:   |   | 
dc_2/4Bc d2d_3/4e dcde ^fgba gfed  | \
w:   | 
c4 c_2/4B_B3AAc BAA6  | 
w:   | 
B4 B2BA G2A2 B2c2 d2dc  | dcBA GAB3/2A/ BcA3/2G/ ABG3BAG  | 
w:  TESLİM  |   | 
F4 EFG3BA2 G2F2 E2D2  | E2F2 G2FE D2FE D^CDE FGAc  | 
w:   |   | 
B4 B2BA G2A2 B2c2 d2dc  | dcBA GAB3/2A/ BcA3/2G/ ABG3BAG  | 
w:  TESLİM  |   | 
F4 EFG3BA2 G2F2 E2D2  | E2F2 G2FE D2FE D^CD6  | 
w:   |   | 
ba^ga b^c'a4z2 fed4^cd  | e4 def2 ef^g2 fga6  | 
w:  3. HANE  |   | 
ba^ga b^c'd'6 c'bc'4ba  | b4 a2e'2 d'^c'c'b baa4z2  | 
w:   |   | 
a2_2/4b2 c'2b2 c'_7/8ba2 _b2a2 ^g2f2  | \
w:   | 
^g3/2a/ga gfb2 agfe dfe6  | 
w:   | 
A4 B2^c2 d2e2 f2a^g fed2  | ^c4 BAe2 dccB BAA6  | 
w:   |   | 
B4 B2BA G2A2 B2c2 d2dc  | dcBA GAB3/2A/ BcA3/2G/ ABG3BAG  | 
w:  TESLİM  |   | 
F4 EFG3BA2 G2F2 E2D2  | E2F2 G2FE D2FE D^CDE FGAc  | 
w:   |   | 
B4 B2BA G2A2 B2c2 d2dc  | dcBA GAB3/2A/ BcA3/2G/ ABG3BAG  | 
w:  TESLİM  |   | 
F4 EFG3BA2 G2F2 E2D2  | E2F2 G2FE D2FE D^CD6  | 
w:   |   | 
z12  | A6d4e2  | f6f2e2d2  | ^c6d4^d2  | e8-e2z2  | \
w:  |  4. HANE  |   |   |   | 
A6B4A2  | d6d2c2B2  | 
w:   |   | 
A2AGABG2GFGA  | F2FEFGBAGFED  | 
w:   |   | 
A6d4e2  | f8e2d2  | ^c6d4^d2  | e8-e2z2  | \
w:   |   |   |   | 
e2edefg2gfge  | 
w:   | 
f2fefga2abag  | f2fefge2edef  | d12  | 
w:   |   |   | 
A6d4e2  | f6f2e2d2  | ^c6d4^d2  | e8-e2z2  | \
w:   |   |   |   | 
A6B4A2  | d6d2c2B2  | A2AGABG2GFGA  | 
w:   |   |   | 
F2FEFGBAGFED  | A6d4e2  | f8e2d2  | ^c6d4^d2  | \
w:   |   |   |   | 
e8-e2z2  | 
w:   | 
e2edefg2gfge  | f2fefga2abag  | f2fefge2edef  | 
w:   |   |   | 
d12  | ba^gabagabaga  | d'12  | ag^fgagfgagfg  | 
w:   |   |   |   | 
c'12  | gfefgfefgfef  | a4g2f2e2d2  | c2d2e2f2g2^g2  | 
w:   |   |   |   | 
ba^gabagabaga  | d'12  | ag^fgagfgagfg  | 
w:   |   |   | 
c'12  | gfefgfefgfef  | a4g2f2e2d2  | c6B6  | A12  | 
w:   |   |   |   |   | 
z20  | B4 B2BA G2A2 B2c2 d2dc  | dcBA GAB3/2A/ BcA3/2G/ ABG3BAG  | 
w:  |  TESLİM  |   | 
F4 EFG3BA2 G2F2 E2D2  | E2F2 G2FE D2FE D^CDE FGAc  | 
w:   |   | 
B4 B2BA G2A2 B2c2 d2dc  | dcBA GAB3/2A/ BcA3/2G/ ABG3BAG  | 
w:  TESLİM  |   | 
F4 EFG3BA2 G2F2 E2D2  | E2F2 G2FE D2FE D^CD6  | 
w:   |   | 
|


